themes/recalbox-multi-v3/apple2/data/icon_filled.svg

<?xml version="1.0" encoding="UTF-8" standalone="no"?>
<!-- Generator: Adobe Illustrator 16.0.3, SVG Export Plug-In . SVG Version: 6.00 Build 0)  -->

<svg
   xmlns:dc="http://purl.org/dc/elements/1.1/"
   xmlns:cc="http://creativecommons.org/ns#"
   xmlns:rdf="http://www.w3.org/1999/02/22-rdf-syntax-ns#"
   xmlns:svg="http://www.w3.org/2000/svg"
   xmlns="http://www.w3.org/2000/svg"
   xmlns:sodipodi="http://sodipodi.sourceforge.net/DTD/sodipodi-0.dtd"
   xmlns:inkscape="http://www.inkscape.org/namespaces/inkscape"
   version="1.1"
   id="svg2"
   x="0px"
   y="0px"
   width="30"
   height="30"
   viewBox="0 0 30 30"
   enable-background="new 0 0 564.703 165.918"
   xml:space="preserve"
   inkscape:version="0.91 r13725"
   sodipodi:docname="icon_filled.svg"><metadata
     id="metadata25"><rdf:RDF><cc:Work
         rdf:about=""><dc:format>image/svg+xml</dc:format><dc:type
           rdf:resource="http://purl.org/dc/dcmitype/StillImage" /><dc:title></dc:title></cc:Work></rdf:RDF></metadata><defs
     id="defs23" /><sodipodi:namedview
     pagecolor="#ffffff"
     bordercolor="#666666"
     borderopacity="1"
     objecttolerance="10"
     gridtolerance="10"
     guidetolerance="10"
     inkscape:pageopacity="0"
     inkscape:pageshadow="2"
     inkscape:window-width="1920"
     inkscape:window-height="1027"
     id="namedview21"
     showgrid="false"
     inkscape:zoom="14.264774"
     inkscape:cx="28.080137"
     inkscape:cy="10.052129"
     inkscape:window-x="-8"
     inkscape:window-y="-8"
     inkscape:window-maximized="1"
     inkscape:current-layer="svg2" /><g
     id="layer1"
     transform="translate(0,-135.918)" /><g
     id="layer5"
     transform="translate(0,-135.918)" /><path
     d="M 15.978844,5.9404346 C 17.02194,4.7959148 17.565511,3.1886572 17.64044,1.0268591 l 0.0027,-0.0784 -0.07679,0.01568 c -3.663409,0.7494581 -5.55536,3.0455817 -5.62337,6.8244281 l -0.0013,0.07364 0.07273,-0.011293 c 1.745132,-0.2732243 3.041871,-0.8982969 3.964475,-1.9103485 z"
     id="path5"
     inkscape:connector-curvature="0"
     style="fill:#008000" /><path
     d="m 3.3714031,25.377192 0.067334,0.09686 c 0.6055055,0.873498 1.2999467,1.723196 2.0637475,2.52648 0.5817105,0.611418 1.5083633,0.947922 2.6090061,0.947922 0.8066652,0 1.6430327,-0.189682 2.1828913,-0.495143 1.116845,-0.631149 1.708681,-0.632502 2.140702,-0.633174 0.08674,0 0.167746,-3.36e-4 0.245712,-0.0047 l 0.07054,-0.0047 c 0.09349,-0.0056 0.190021,-0.01251 0.29887,-0.01251 0.383083,0 0.955174,0.07513 1.995232,0.662882 0.725831,0.304444 1.429722,0.458519 2.092099,0.458519 1.69e-4,0 1.69e-4,0 3.37e-4,0 1.803354,0 3.38462,-1.128662 4.833919,-3.447737 l 0.05923,-0.09468 -18.6596273,0 0,0 z"
     id="path7"
     inkscape:connector-curvature="0"
     style="fill:#0000ff" /><path
     d="m 22.245353,10.905639 c 0.241155,-0.240305 0.501044,-0.477251 0.780169,-0.710137 l 0.04675,-0.03901 -0.03847,-0.04741 C 21.674452,8.4323064 19.813046,7.5280922 17.650912,7.4939975 l -0.09906,-4.574e-4 c -1.095749,0 -2.06476,0.2053802 -2.802066,0.5938619 -0.956186,0.5035805 -1.667334,0.6152913 -1.674253,0.6163087 -0.01249,0.00187 -0.09079,0.00467 -0.305453,0.00467 -0.260563,0 -0.485518,-0.00467 -0.512519,-0.0084 l -0.01722,-0.0028 C 11.933702,8.6575106 11.152182,8.5289345 10.518662,8.1912355 9.657655,7.7322217 8.6984321,7.4893775 7.7447779,7.4893775 l -0.062778,3.36e-4 C 5.1604107,7.5179001 3.0524486,8.7466254 1.7427141,10.904706 l 20.5026369,0 z"
     id="path9"
     inkscape:connector-curvature="0"
     style="fill:#008000" /><path
     d="m 20.131147,14.490418 c 0.248074,-1.199886 0.917877,-2.364817 2.010081,-3.479638 l 0.102943,-0.105141 -20.5017935,0 -0.018057,0.02987 C 1.0960325,11.9781 0.67987401,13.184051 0.48225783,14.490243 l 19.64888917,1.68e-4 0,0 z"
     id="path11"
     inkscape:connector-curvature="0"
     style="fill:#ffff00" /><path
     d="M 20.611433,18.031647 C 20.11562,17.013183 19.872102,15.836435 20.118826,14.564832 l 0.01418,-0.07373 -19.64872008,0 -0.007763,0.05245 c -0.16622711,1.132546 -0.16622711,2.304907 -0.0124881,3.487908 l 20.14740118,1.68e-4 0,0 z"
     id="path13"
     inkscape:connector-curvature="0"
     style="fill:#ff6600" /><path
     d="m 1.4291617,21.74669 22.4546673,0 0.131463,-0.284359 -0.054,-0.02669 C 22.886639,20.903556 21.445947,19.738774 20.62578,18.066043 l -0.01704,-0.03453 -20.14537647,0 0.009282,0.06991 c 0.13703189,1.024857 0.41717097,2.269794 0.95652327,3.645352 z"
     id="path15"
     inkscape:connector-curvature="0"
     style="fill:#ff0000" /><path
     d="m 3.3717406,25.377192 18.6572634,0 c 0.712329,-1.154478 1.299608,-2.425567 1.815504,-3.542582 l 0.0405,-0.08773 -22.4523049,0 0.03392,0.08475 c 0.4907496,1.22585 1.1281504,2.410373 1.9051144,3.545615 z"
     id="path17"
     inkscape:connector-curvature="0"
     style="fill:#800080" /></svg>

<svg xmlns="http://www.w3.org/2000/svg" width="30" height="30">
  <path fill="green" d="M15.978844 5.9404346c1.043096-1.1445198 1.586667-2.7517774 1.661596-4.9135755l.0027-.0784-.07679.01568c-3.663409.7494581-5.55536 3.0455817-5.62337 6.8244281l-.0013.07364.07273-.011293c1.745132-.2732243 3.041871-.8982969 3.964475-1.9103485z"/>
  <path fill="#00f" d="M3.3714031 25.377192l.067334.09686c.6055055.873498 1.2999467 1.723196 2.0637475 2.52648.5817105.611418 1.5083633.947922 2.6090061.947922.8066652 0 1.6430327-.189682 2.1828913-.495143 1.116845-.631149 1.708681-.632502 2.140702-.633174.08674 0 .167746-.000336.245712-.0047l.07054-.0047c.09349-.0056.190021-.01251.29887-.01251.383083 0 .955174.07513 1.995232.662882.725831.304444 1.429722.458519 2.092099.458519h.000337c1.803354 0 3.38462-1.128662 4.833919-3.447737l.05923-.09468H3.3713957z"/>
  <path fill="green" d="M22.245353 10.905639c.241155-.240305.501044-.477251.780169-.710137l.04675-.03901-.03847-.04741c-1.35935-1.6767756-3.220756-2.5809898-5.38289-2.6150845l-.09906-.0004574c-1.095749 0-2.06476.2053802-2.802066.5938619-.956186.5035805-1.667334.6152913-1.674253.6163087-.01249.00187-.09079.00467-.305453.00467-.260563 0-.485518-.00467-.512519-.0084l-.01722-.0028c-.306639-.0396701-1.088159-.1682462-1.721679-.5059452-.861007-.4590138-1.8202299-.701858-2.7738841-.701858l-.062778.000336c-2.5215892.0281866-4.6295513 1.2569119-5.9392858 3.4149925H22.245351z"/>
  <path fill="#ff0" d="M20.131147 14.490418c.248074-1.199886.917877-2.364817 2.010081-3.479638l.102943-.105141H1.7423775l-.018057.02987C1.0960325 11.9781.679874 13.184051.48225783 14.490243l19.64888917.000168z"/>
  <path fill="#f60" d="M20.611433 18.031647c-.495813-1.018464-.739331-2.195212-.492607-3.466815l.01418-.07373H.48428592l-.007763.05245c-.1662271 1.132546-.1662271 2.304907-.0124881 3.487908l20.14740118.000168z"/>
  <path fill="red" d="M1.4291617 21.74669H23.883829l.131463-.284359-.054-.02669c-1.074653-.532085-2.515345-1.696867-3.335512-3.369598l-.01704-.03453H.46336353l.009282.06991c.1370319 1.024857.41717097 2.269794.95652327 3.645352z"/>
  <path fill="purple" d="M3.3717406 25.377192H22.029004c.712329-1.154478 1.299608-2.425567 1.815504-3.542582l.0405-.08773H1.4327031l.03392.08475c.4907496 1.22585 1.1281504 2.410373 1.9051144 3.545615z"/>
</svg>
